img/ok.svg

<svg width="17" height="17" viewBox="0 0 17 17" fill="none" xmlns="http://www.w3.org/2000/svg">
<path fill-rule="evenodd" clip-rule="evenodd" d="M5.61398 1.83447H11.394C13.654 1.83447 15.1673 3.42114 15.1673 5.78114V11.2285C15.1673 13.5811 13.654 15.1678 11.394 15.1678H5.61398C3.35398 15.1678 1.83398 13.5811 1.83398 11.2285V5.78114C1.83398 3.42114 3.35398 1.83447 5.61398 1.83447ZM8.12065 10.4945L11.2873 7.32781C11.514 7.10114 11.514 6.73447 11.2873 6.50114C11.0607 6.27447 10.6873 6.27447 10.4607 6.50114L7.70732 9.25447L6.54065 8.08781C6.31398 7.86114 5.94065 7.86114 5.71398 8.08781C5.48732 8.31447 5.48732 8.68114 5.71398 8.91447L7.30065 10.4945C7.41398 10.6078 7.56065 10.6611 7.70732 10.6611C7.86065 10.6611 8.00732 10.6078 8.12065 10.4945Z" fill="#1AA657"/>
</svg>

<svg width="17" height="17" viewBox="0 0 17 17" fill="none" xmlns="http://www.w3.org/2000/svg"><path fill-rule="evenodd" clip-rule="evenodd" d="M5.614 1.834h5.78c2.26 0 3.773 1.587 3.773 3.947v5.448c0 2.352-1.513 3.939-3.773 3.939h-5.78c-2.26 0-3.78-1.587-3.78-3.94V5.782c0-2.36 1.52-3.947 3.78-3.947zm2.507 8.66l3.166-3.166a.587.587 0 0 0 0-.827.587.587 0 0 0-.826 0L7.707 9.254 6.541 8.088a.587.587 0 0 0-.827 0 .587.587 0 0 0 0 .826l1.587 1.58a.57.57 0 0 0 .406.167c.154 0 .3-.053.414-.166z" fill="#1AA657"/></svg>
